svgs/myne.svg

<svg xmlns="http://www.w3.org/2000/svg" viewBox="0 0 192 192"><path fill="none" stroke="#000" stroke-linecap="round" stroke-linejoin="round" stroke-width="8" d="M164.337 161.068H98.125c-3.109-3.102-3.109-14.444 0-17.546h66.212c2.558-2.551 2.558-11.88 0-14.432H31.913c-8.225 8.204-8.225 38.206 0 46.41h132.424c2.558-2.551 2.558-11.881 0-14.432Zm-6.524-17.546v17.546M85.85 129.09c-8.224 8.204-8.224 38.206 0 46.41m-58.435-74.249H94.15c2.707 2.7 2.707 12.575 0 15.275H27.415c-2.227 2.221-2.227 10.343 0 12.564h133.47c7.161-7.142 7.161-33.261 0-40.404H27.415c-2.227 2.221-2.227 10.344 0 12.565Zm5.679 15.275v-15.275m71.742 27.839c7.161-7.142 7.161-33.261 0-40.404m-4.472-46.429s3.703-2.751 6.853-2.751c13.568 0 19.838 7.513 21.512 19.273 2.204 15.486-4.077 23.901-13.282 27.163-8.684 3.078-25.701 2.159-32.777-1.303-7.751-3.791-12.958-13.465-9.83-25.51 3.612-13.909 10.789-22.969 27.524-16.872ZM88.265 24.832s5.034 13.11 12.099 17.425"/><path fill="none" stroke="#000" stroke-linecap="round" stroke-linejoin="round" stroke-width="8" d="M94.746 34.97s-4.873-20.472 18.13-18.31c0 0 9.784 19.251-18.13 18.31Z"/></svg>

<svg
    xmlns="http://www.w3.org/2000/svg"
    viewBox="0 0 192 192"
    id="vector">
    <path
        id="path"
        d="M 164.337 161.068 L 98.125 161.068 C 95.016 157.966 95.016 146.624 98.125 143.522 L 164.337 143.522 C 166.895 140.971 166.895 131.642 164.337 129.09 L 31.913 129.09 C 23.688 137.294 23.688 167.296 31.913 175.5 L 164.337 175.5 C 166.895 172.949 166.895 163.619 164.337 161.068 Z M 157.813 143.522 L 157.813 161.068 M 85.85 129.09 C 77.626 137.294 77.626 167.296 85.85 175.5 M 27.415 101.251 L 94.15 101.251 C 96.857 103.951 96.857 113.826 94.15 116.526 L 27.415 116.526 C 25.188 118.747 25.188 126.869 27.415 129.09 L 160.885 129.09 C 168.046 121.948 168.046 95.829 160.885 88.686 L 27.415 88.686 C 25.188 90.907 25.188 99.03 27.415 101.251 Z M 33.094 116.526 L 33.094 101.251 M 104.836 129.09 C 111.997 121.948 111.997 95.829 104.836 88.686 M 100.364 42.257 C 100.364 42.257 104.067 39.506 107.217 39.506 C 120.785 39.506 127.055 47.019 128.729 58.779 C 130.933 74.265 124.652 82.68 115.447 85.942 C 106.763 89.02 89.746 88.101 82.67 84.639 C 74.919 80.848 69.712 71.174 72.84 59.129 C 76.452 45.22 83.629 36.16 100.364 42.257 Z M 88.265 24.832 C 88.265 24.832 93.299 37.942 100.364 42.257"
        fill="none"
        stroke="#000000"
        stroke-width="8"
        stroke-linecap="round"
        stroke-linejoin="round"/>
    <path
        id="path_1"
        d="M 94.746 34.97 C 94.746 34.97 89.873 14.498 112.876 16.66 C 112.876 16.66 122.66 35.911 94.746 34.97 Z"
        fill="none"
        stroke="#000000"
        stroke-width="8"
        stroke-linecap="round"
        stroke-linejoin="round"/>
</svg>
